X: 20213
M: C
L: 1/8
K: D
d2 d>d e2 e>e | a3 g f2 A2 | B2 Bc (ed).c.B | B>A A>A A2 a>f |\
g2 e>e e2 g>e | a2 f2 ff A2 | Begb f2 e2 | d2 d>d d2 :|
|: A2 |\
e2 e>e f2 f>f | a3 g (gf) (ed) | e2 e>e (bg).e.d | c2 e>e eABc |\
d3 c (cB) (BA) | B3 A (AG) (GF) | Bege d2 c2 | d2 d>d d2 :|


